X:1
T:Title
%%score 1 { 2 | 3 }
L:1/8
M:3/4
K:F
V:1 treble nm="Grand Piano, Staff"
V:2 bass nm="Choir Pad, Staff-1"
V:3 bass 
V:1
 C2 [A,F]4 | [CF]2 [B,D]4 | [B,D]2 [CE]2 [A,F]2 | [CG]2 [CA]4 | [FB]2 [Fc]2 d2 | [FB]2 G2 D2 | %6
w: By~Lindberg,~J.~Olof,~1921 *||||||
 [EG]2 [CF]4- | [CF]4 z2 | C2 [A,F]4 | [CF]2 [B,D]4 | [B,D]2 [CE]2 [A,F]2 | [DG]2 [^CA]2 D2 | %12
w: ||||||
 [FB]2 [Fc]2 d2 | [FB]2 G2 D2 | [EG]2 [CF]4- | [CF]4 z2 | [DF]2 [^CE]4 | [DF]2 [EG]4 | %18
w: ||||||
 [FA]2 [FB]4 | [Gc]2 [FA]4 | [DG]2 [GB]4 | [FA]2 [DG]4 | [DF]2 [Fc]2 E2 | D2 E2 z2 | [Fc]2 [Fd]4 | %25
w: |||||||
 [Fd]2 [Fc]4 | F2 B2 D2 | [EB]2 [FA]4 | [FA]2 [FG]2 A2 | [FB]2 G2 D2 | [EG]2 [CF]4- | [CF]4 z2 |] %32
w: |||||||
V:2
 z6 | F,2 F,4 | G,2 G,2 [D,F,]2 | E,2 F,4 | [D,D]2 [A,C]2 B,2 | [G,D]2 C4 | B,2 F,2 A,2 | %7
 G,2 A,2 z2 | [E,G,]2 [D,F,]4 | F,2 F,4 | G,2 G,2 [D,F,]2 | D,2 E,2 F,2 | D2 C2 B,2 | D2 C4 | %14
 B,2 F,2 A,2 | G,2 A,2 z2 | [D,A,]2 A,4 | [D,A,]2 C4 | [F,C]2 [D,D]4 | [E,C]2 [F,C]4 | D2 D4 | %21
 C2 D4 | D2[K:bass] G,4- | G,4 z2 | [F,A,]2 B,4 | [D,B,]2 [F,A,]4 | [A,C]2 [G,B,]4 | %27
 [G,B,]2 [F,C]4 | [D,D]2 D4 | D2 C4 | B,2 F,2 A,2 | G,2 A,2 z2 |] %32
V:3
 C,2 [F,,C,]4 | A,,2 B,,2 A,,2 | G,,2 C,2 z2 | C,2 z2 z2 | z6 | z6 | C,2 z2 z2 | z6 | z6 | %9
 A,,2 B,,2 A,,2 | G,,2 C,2 z2 | B,,2 z2 z2 | z6 | z6 | C,2 z2 z2 | z6 | z2 A,,4 | z2 C,4 | z6 | %19
 z6 | B,,2 G,,4 | A,,2 B,,4 | B,,2 C,4- | C,4 z2 | z2 B,,2 C,2 | z6 | z6 | z6 | z2 B,,2 A,,2 | %29
 G,,2 C,4 | C,2 z2 z2 | z6 |] %32

